X: 45
T: Ak Duvaklar Tel Bekliyor...
C: Ömer Dilek
O: Turkey
F: http://compmusic.upf.edu/node/140
N: nihavent--sarki--duyek--ak_duvaklar--omer_dilek
N: makam= nihavent
N: form= sarki
N: usul= duyek = 8/4
M: 8/4
L: 1/16
K: C _B _e  
Q: 1/4=240
%%MIDI tuningsystem comma53
z2 d4 d2 d4 d4  | z2 d4 d2 d4 d4  | B2 A2 G4 z8  | \
w:   |   |   | 
B2 A2 G4 z8  | z2 g4 g2 g4 g4  | 
w:   |   | 
z2 g4 g2 g4 g4  | e2 d2 c4 z8  | e2 d2 c4 z8  | \
w:   |   |   | 
z2 f4 g2 a4 b2 a2  | z2 g4 f2 e4 d4  | 
w:   |   | 
e2 d2 c2 B2 A4 z4  | e2 d2 c2 B2 A4 z4  | \
w:   |   | 
z2 A4 B2 c4 d2 c2  | z2 e4 d2 c4 B2 A2  | 
w:   |   | 
B2 A2 G2 ^F2 G8  | B2 A2 G2 ^F2 G8  | \
w:   |   | 
z2 f4 g2 a4 b2 a2  | z2 g4 f2 e4 d4  | 
w:   |   | 
e2 d2 c2 B2 A4 z4  | e2 d2 c2 B2 A4 z4  | \
w:   |   | 
z2 A4 B2 c4 d2 c2  | z2 e4 d2 c4 B2 A2  | 
w:   |   | 
B2 A2 G2 ^F2 G8  | B2 A2 G2 ^F2 G8  | \
w:   |   | 
z2 G4 d2 d4 d4  | d4 e4 d2 c2 B2 A2  | 
w:  Ak  du vak lar   |  tel  bek li yor   | 
z2 A4 ^F2 G4 z4  | z2 A4 ^F2 G8  | z2 G4 d2 d4 d4  | \
w:  ben  se ni    |  SAZ  |  Al  du dak lar   | 
d4 e4 d2 c6  | z2 ^f4 e2 d4 z4  | 
w:  bal  bek li yor   |  ben  se ni    | 
z2 ^f4 e2 d8  | z2 d2 e2 ^f2 g8  | a4 b4 a2 g4 ^f2  | \
w:  SAZ  |  Sa rı  ka vak   |  yel  bek li yor   | 
z2 ^f2 d2 f2 e4 z4  | z2 ^f2 d2 f2 e8  | 
w:  ben  *  se ni    |  SAZ  | 
z2 G,2 A,2 B,2 C2 D2 E2 F2  | G2 A2 B2 c2 d2 e2 f2 g2  | \
w:   |   | 
z2 g14  | z2 g14  | b2 a2 g4 z8  | 
w:  Gel   |  gel   |  ha di  gel   | 
a2 g2 ^f4 z8  | z2 e8-e2 d4  | z2 d8-d2 c4  | \
w:  ha di  gel   |  gel   |  gel    | 
B2 A2 G4 z8  | B2 A2 G4 z8  | z2 d2 e2 ^f2 g8  | 
w:  ha di  gel   |  ha di  gel    |  Sa rı  ka vak   | 
a4 b4 a2 g4 ^f2  | z2 ^f2 d2 f2 e4 z4  | \
w:  yel  bek li yor   |  ben  *  se ni    | 
z2 ^f2 d2 f2 e8  | z2 G,2 A,2 B,2 C2 D2 E2 F2  | 
w:  SAZ  |   | 
G2 A2 B2 c2 d2 e2 f2 g2  | z2 g14  | \
w:   |  Gel   | 
z2 g14  | b2 a2 g4 z8  | a2 g2 ^f4 z8  | \
w:  gel   |  ha di  gel   |  ha di  gel   | 
z2 e8-e2 d4  | 
w:  gel   | 
z2 d8-d2 c4  | B2 A2 G4 z8  | B2 A2 G4 z8  | \
w:  gel    |  ha di  gel   |  ha di  gel    | 
z2 d4 d2 d4 d4  | z2 d4 d2 d4 d4  | 
w:   |   | 
B2 A2 G4 z8  | B2 A2 G4 z8  | z2 g4 g2 g4 g4  | \
w:   |   |   | 
z2 g4 g2 g4 g4  | e2 d2 c4 z8  | 
w:   |   | 
e2 d2 c4 z8  | z2 f4 g2 a4 b2 a2  | z2 g4 f2 e4 d4  | \
w:   |   |   | 
e2 d2 c2 B2 A4 z4  | 
w:   | 
e2 d2 c2 B2 A4 z4  | z2 A4 B2 c4 d2 c2  | \
w:   |   | 
z2 e4 d2 c4 B2 A2  | B2 A2 G2 ^F2 G8  | 
w:   |   | 
B2 A2 G2 ^F2 G8  | z2 f4 g2 a4 b2 a2  | \
w:   |   | 
z2 g4 f2 e4 d4  | e2 d2 c2 B2 A4 z4  | 
w:   |   | 
e2 d2 c2 B2 A4 z4  | z2 A4 B2 c4 d2 c2  | \
w:   |   | 
z2 e4 d2 c4 B2 A2  | B2 A2 G2 ^F2 G8  | 
w:   |   | 
B2 A2 G2 ^F2 G8  | G2 d4 d2 d4 z4  | \
w:   |  Kı rık  va zo   | 
d4 e4 d2 c2 B2 A2  | z2 A4 ^F2 G4 z4  | 
w:  gül  bek li yor   |  ben  se ni    | 
z2 A4 ^F2 G8  | G4 d4 d2 d6  | d4 e4 d2 c6  | \
w:  SAZ  |  As ker  Me met   |  yıl  bek li yor   | 
z2 ^f4 e2 d4 z4  | z2 ^f4 e2 d8  | 
w:  ben  se ni    |  SAZ  | 
z4 d2 e2 ^f4 g4  | a4 b4 a2 g4 ^f2  | \
w:  Bu  ku lak lar   |  gel  bek li yor   | 
z2 ^f2 d2 f2 e4 z4  | z2 ^f2 d2 f2 e8  | 
w:  ben  *  se ni    |  SAZ  | 
z2 G,2 A,2 B,2 C2 D2 E2 F2  | G2 A2 B2 c2 d2 e2 f2 g2  | \
w:   |   | 
z2 g14  | z2 g14  | b2 a2 g4 z8  | 
w:  Gel   |  gel   |  ha di  gel   | 
a2 g2 ^f4 z8  | z2 e8-e2 d4  | z2 d8-d2 c4  | \
w:  ha di  gel   |  gel   |  gel   | 
B2 A2 G4 z8  | B2 A2 G4 z8  | z4 d2 e2 ^f4 g4  | 
w:  ha di  gel   |  ha di  gel    |  Bu  ku lak lar   | 
a4 b4 a2 g4 ^f2  | z2 ^f2 d2 f2 e4 z4  | \
w:  gel  bek li yor   |  ben  *  se ni    | 
z2 ^f2 d2 f2 e8  | z2 G,2 A,2 B,2 C2 D2 E2 F2  | 
w:  SAZ  |   | 
G2 A2 B2 c2 d2 e2 f2 g2  | z2 g14  | \
w:   |  Gel   | 
z2 g14  | b2 a2 g4 z8  | a2 g2 ^f4 z8  | \
w:  gel   |  ha di  gel   |  ha di  gel   | 
z2 e8-e2 d4  | 
w:  gel   | 
z2 d8-d2 c4  | B2 A2 G4 z8  | B2 A2 G4 z8  | |


